packages/tokens/icons/restApi/size24Px.svg

<svg viewBox="0 0 24 24" fill="none" xmlns="http://www.w3.org/2000/svg" width="1em" height="1em"><path d="M7.68464 3.5L16.4132 3.5C16.8619 3.5 17.2724 3.75249 17.4747 4.15293L21.1688 11.4636C21.3392 11.8009 21.3392 12.1991 21.1688 12.5364L17.4747 19.8471C17.2724 20.2475 16.8619 20.5 16.4132 20.5L7.68464 20.5C7.24009 20.5 6.83265 20.2521 6.62836 19.8572L2.84574 12.5465C2.66839 12.2038 2.66839 11.7962 2.84574 11.4535L6.62836 4.14277C6.83265 3.74793 7.24009 3.5 7.68464 3.5Z" stroke="currentColor"/><path d="M10.5 6.5L9.94328 6.5C9.14618 6.5 8.5 7.14618 8.5 7.94328V10.8634C8.5 11.2959 8.24119 11.6864 7.84288 11.8549V11.8549C7.7147 11.9092 7.7147 12.0908 7.84288 12.1451V12.1451C8.24119 12.3136 8.5 12.7041 8.5 13.1366V16.0567C8.5 16.8538 9.14618 17.5 9.94328 17.5H10.5" stroke="currentColor" stroke-linecap="round" stroke-linejoin="round"/><path d="M13.5 6.5L14.0567 6.5C14.8538 6.5 15.5 7.14618 15.5 7.94328V10.8634C15.5 11.2959 15.7588 11.6864 16.1571 11.8549V11.8549C16.2853 11.9092 16.2853 12.0908 16.1571 12.1451V12.1451C15.7588 12.3136 15.5 12.7041 15.5 13.1366V16.0567C15.5 16.8538 14.8538 17.5 14.0567 17.5H13.5" stroke="currentColor" stroke-linecap="round" stroke-linejoin="round"/></svg>

<svg xmlns="http://www.w3.org/2000/svg" fill="none" viewBox="0 0 24 24" width="1em" height="1em"><path stroke="currentColor" d="M7.685 3.5h8.728c.449 0 .86.252 1.062.653l3.694 7.31c.17.338.17.736 0 1.073l-3.694 7.311a1.19 1.19 0 0 1-1.062.653H7.685a1.19 1.19 0 0 1-1.057-.643l-3.782-7.31a1.19 1.19 0 0 1 0-1.094l3.782-7.31A1.19 1.19 0 0 1 7.685 3.5Z"/><path stroke="currentColor" stroke-linecap="round" stroke-linejoin="round" d="M10.5 6.5h-.557c-.797 0-1.443.646-1.443 1.443v2.92c0 .433-.259.823-.657.992v0a.158.158 0 0 0 0 .29v0c.398.169.657.56.657.992v2.92c0 .797.646 1.443 1.443 1.443h.557m3-11h.557c.797 0 1.443.646 1.443 1.443v2.92c0 .433.259.823.657.992v0a.158.158 0 0 1 0 .29v0a1.077 1.077 0 0 0-.657.992v2.92c0 .797-.646 1.443-1.443 1.443H13.5"/></svg>
